X:55
T:Gavotte des Montagnes (Y. Menez)
C:Trad 1, 106
N:ternair
M:4/4
L:1/8
K:C
Ec Bc A^G AE|FE GF E2E2|Ec Bc A^G AE|FE GF E2E2|]|
EA GF ED EE|A2 AA GF E2|EA GF ED EF|ED CB, A,2A,2|
C2 CB, DB, C2|CB, CB, A,2 (3A,B,C|D2 DD CB, C2|CB, CB, A,2A,2||
%%newpage
%%center Suite de Loudac
